hero/outline/queue-list.svg

<svg width="24" height="24" viewBox="0 0 24 24" fill="none" xmlns="http://www.w3.org/2000/svg">
<path d="M3.75 12H20.25M3.75 15.75H20.25M3.75 19.5H20.25M5.625 4.5H18.375C19.4105 4.5 20.25 5.33947 20.25 6.375C20.25 7.41053 19.4105 8.25 18.375 8.25H5.625C4.58947 8.25 3.75 7.41053 3.75 6.375C3.75 5.33947 4.58947 4.5 5.625 4.5Z" stroke="#0F172A" stroke-width="1.5" stroke-linecap="round" stroke-linejoin="round"/>
</svg>

<svg viewBox="0 0 24 24" xmlns="http://www.w3.org/2000/svg"><path fill="none" stroke="#000" stroke-linecap="round" stroke-linejoin="round" stroke-width="1.5" d="M3.75 12h16.5m-16.5 3.75h16.5M3.75 19.5h16.5M5.625 4.5h12.75v0c1.03 0 1.875.83 1.875 1.875 0 1.03-.84 1.875-1.875 1.875H5.625v0c-1.04 0-1.875-.84-1.875-1.875 0-1.04.83-1.875 1.875-1.875Z"/></svg>
